X: 1
T: the Spring Fling
C: James Gray
R: reel
B: Alex & James Gray "Tweeddale Collection" v.4 #1 p.9; p.38 #1,8
N: Tune for Mississauga Starter
Z: 2017 John Chambers <jc:trillian.mit.edu>
S: PDF via strathspey.org message
M: 6/8
L: 1/8
K: A
AE |\
"A"CEAc "D"BAFA | "A"E2cE "E7"BEAE |\
"A"CEAc "D"BAFA | "A"efec "E7"B3E |
"A"CEAc "D"BAFA | "A"E2cE "E7"BEAE |\
"A"efec "F#m"BAFA | "E7"EccB "A"A2 :|
|: Ac |\
"A"efec "/c#"a2Aa | "D"fAAf "E7"ecBc |\
"A"efec "F#m"a2Aa | "D"faec "E7"B2Bc |
"A"efec "/c#"a2Aa | "D"fAAf "E7"ecBc |\
"A"EFAc "D"BAFA | "E7"EccB "A"A2 :|
